packages/ui-icons/svg/Line/table.svg

<svg viewBox="0 0 1920 1920" version="1.1" xmlns="http://www.w3.org/2000/svg">
    <path d="M1800 600h-480V120h420c33 0 60 27 60 60v420zm-480 600V720h480v480h-480zm480 540c0 33-27 60-60 60h-420v-480h480v420zM720 600V120h480v480H720zm0 600V720h480v480H720zm0 600v-480h480v480H720zM600 600H120V180c0-33 27-60 60-60h420v480zm-480 600V720h480v480H120zm480 600H180c-33 0-60-27-60-60v-420h480v480zM1740 0H180C80.76 0 0 80.76 0 180v1560c0 99.24 80.76 180 180 180h1560c99.24 0 180-80.76 180-180V180c0-99.24-80.76-180-180-180z" stroke="none" stroke-width="1" fill-rule="evenodd"/>
</svg>

<svg viewBox="0 0 1920 1920" version="1.1" xmlns="http://www.w3.org/2000/svg">
    <path d="M1800,1320 L1800,1740 C1800,1773 1773,1800 1740,1800 L1320,1800 L1320,1320 L1800,1320 Z M1200,1320 L1200,1800 L720,1800 L720,1320 L1200,1320 Z M600,1320 L600,1800 L180,1800 C147,1800 120,1773 120,1740 L120,1320 L600,1320 Z M1800,720 L1800,1200 L1320,1200 L1320,720 L1800,720 Z M1200,720 L1200,1200 L720,1200 L720,720 L1200,720 Z M600,720 L600,1200 L120,1200 L120,720 L600,720 Z M1740,120 C1773,120 1800,147 1800,180 L1800,600 L1320,600 L1320,120 L1740,120 Z M1200,120 L1200,600 L720,600 L720,120 L1200,120 Z M600,120 L600,600 L120,600 L120,180 C120,147 147,120 180,120 L600,120 Z M1740,0 L180,0 C80.76,0 0,80.76 0,180 L0,1740 C0,1839.24 80.76,1920 180,1920 L1740,1920 C1839.24,1920 1920,1839.24 1920,1740 L1920,180 C1920,80.76 1839.24,0 1740,0 L1740,0 Z" stroke="none" stroke-width="1" fill-rule="evenodd"/>
</svg>
